X:1
T:Trio in C Major
T:Trio in C Major
T:For 2 Flutes and Clarinet I: Allegro 
T:L. V. Beethoven, Op. 87 Transcribed by Spencer LC 
C:L. V. Beethoven
%%score [ 1 2 3 ]
L:1/8
Q:1/4=140
M:4/4
K:C
V:1 treble nm="Flute 1" snm="Fl. 1"
V:2 treble nm="Flute 2" snm="Fl. 2"
V:3 treble transpose=-2 nm="B♭ Clarinet" snm="B♭ Cl."
V:1
"^Allegro" z3/2!f! e/ |!>(! (e8!>)! |!p! .c2) z2 z4 | z4 z2 (e>f) | .g2 .g2 .g2 .e2 | %5
 .c2 (c2 d2 e2 | g3 f e2) z2 | z4 z2 (f>g) | .a2 .a2 .a2 .f2 | .d2 (d2 e2 f2 | a3 g f2) z2 | %11
 (g3 f e2) z2 |!<(! (d4!<)!!>(! cBAG)!>)! | (g3 ^f/g/ ag=fe) |!<(! (^cd)(cd)!<)!!>(! (=cBAG)!>)! | %15
 (g3 a/b/ c'/b/a/g/ a/g/f/)e/ | (^cd) d3 (e/d/ =c/B/A/G/) |"^A" c2 z2 z2 (e>f) | .g2 .g2 .g2 c'2 | %19
 (c'4 b2) b>c' | .d'2 .d'2 .d'2 .f2 | (f4 e2) e>f |!<(! (g^f)(gf)!<)!!>(! (gabc')!>)! | %23
 (c'4 b2) (b>c') |!<(! (^c'd')(=c'b)!<)!!>(! (agaf)!>)! | e2 (g2 c2) (e2 | A2) (c2 F2) (A2 | %27
 G2) .G2 .G2 .^F2 |!f! GA/B/ c/d/e/^f/ gggg | .g2 .g2 .g2 .^f2 | g2 z2 g2 z2 |"^B" g2 z2 z4 | z8 | %33
 z4 z2!p! (g>a) |!<(! (._b2 .b2 .b2) (a>g)!<)! | ^f4 g4 |!f! c'4- (c'!courtesy!=bag) |!p! ^f4 g4 | %38
!f! c'4- (c'!courtesy!=bag) | ^f2 z2 z!p! .f.a.b | c'2 z2 z!p! .^f.a.b | .c'!f!.^f.a.b .c'.f.a.b | %42
 (c'bag!>(! ^fedc)!>)! |!p!"_dolce""^C" (B3 c A3 B) | G2 (d3 ^c=c)B | (B3 c A3 B) | G2 (g3 ^f=f)e | %47
 e2 g4 d2- | d2 c4 B2 | (Ace^g abc'a) | (!courtesy!=g2 ^f2) z4 | z8 | (b3 c' a3 b) | g2 (d'4 c'2) | %54
 (b3 c' a3 b) |"_cresc." .g.^f.g.a .b.^d.e.f | .g.B.c.d .e.^G.A.B | c8- | (c2 B2 c2 ec) | %59
 (B2 d2 c2 A2) | B2 z2 z!<(! .c'.b.a!<)! | .g!f!.a.g.f .e.f.e.d |!p! c8 |!pp! _B4 _e4- | e4 d4 | %65
 (_e6 f2) | (_e6 f2) | (_e2 f2 e2 f2) | (_e4 ^c4 | d4 A4) | %70
!f!"^D" G/A/B/c/ d/e/^f/g/ f/g/a/g/ f/d/e/f/ | g2 z2 d2 d2 | G/A/B/c/ d/e/^f/g/ f/g/a/g/ f/d/e/f/ | %73
 g2 z2 d2 d2 | G/A/B/c/ d/e/^f/g/ f/g/a/g/ f/d/e/f/ | g/b/a/g/ ^f/d/e/f/ g/b/a/g/ f/d/e/f/ | %76
 g/G/A/B/ c/d/e/^f/ !turn!g/f/g/a/ !turn!b/a/b/c'/ |!p!!<(! d'4-!<)!!>(! (d'c'ba)!>)! | %78
 .g2 .g2 (g^fed) |!<(! (d'^c'd'c'!<)!!>(! d'=c'ba)!>)! | .g2 g2- (g^fed) | %81
!<(! (d'^c'd'c'!<)!!>(! d'=c'ba)!>)! | .g2 g2- (g^ga^f) |"^E" g2 z2!mf! Bc/d/ e/^f/g/a/ | %84
 (b.g).g.g g2 z2 | (d'.b).b.b!p! (_b4 | a4 _a4 | g4 ^f4) | (g.d).d.d!<(! (e.c).c.c!<)! | %89
!f! c4!f!!>(! ^c4- | (c2!>)! d2) z2!p! .^f2 | .g2 z2!f!!>(! ^c4- | (c2!>)! d2) z2!p! .a2 | %93
 .b2 z2!ff!!>(! _b4- | (b2!>)! =b2) z2!p! .^f2 | .g2 z2 z2 (a>b) | .g2 (a>b) .g2 (a>b) | %97
 .g2 z2 z2 (c>d) | .B2 (c>d) .B2 (c>d) | .B2 z2 z2!f! .^f.a | .g.g.^f.a .g.g.f.a | g2 z2 d2 z2 | %102
 B2 z2 z2 ::"^F" z2 z8 | z2!p! (f2 e2 d2 | c2)!f! .^g2 .a2 .b2 | .c'2 z2 z4 | z8 | %108
 z2!p! (_e2 d2 c2 | _B2)!f! .^f2 .g2 .a2 | ._b2 z2 z2!p! (g>a) | ._b2 .b2 .b2 .g2 | e6 (f>g) | %113
 .a2 ._a2 .a2 .f2 | d6 (_e>f) | .g2 (^f>g) .a2 (a>b) | .c'._b.a.g .^f._e.d.c | %117
 ._B2 (e>f) .g2 (g>a) | (_bagf egfd | cedB cedB) | c2 z2 z4 |"^G" z8 |!p! (a3 _b g3 a) | %123
 f2 (c'4 _b2) | (a3 _b g3 a | f3 g e3 f) | d2 z2 z4 | (f3 g e3 f) | d2 (a4 g2) | (f3 g e3 f) | %130
 d2 (a4 g2) | (f3 g e3 f | d3 e c3 d) |"^H" B2 z2 z4 | (defe gfed) | e2 z2 z4 | (efgf agfe) | %137
 d/(G/A/B/ c/d/e/^f/ gfgf) | g2 z2 z4 | g/(G/A/B/ c/d/e/^f/ gfgf) | g2 z2 z4 | %141
 g/G/A/B/ c/d/e/^f/ g/d/e/f/ g/a/b/a/ | g/d/e/^f/ g/a/b/a/ g/d/e/f/ g/a/b/a/ |"^1""^I" g8- | g8- | %145
 g8- | g8- |"^5" g8- | g8- | g8- | g8- |"^9" (g8 | (^f8) |!p! !fermata!!courtesy!=f6) z3/2!f! e/ | %154
"^J" (e8 |!p! .c2) z2 z4 | z4 z2 e>f | .g2 .g2 .g2 .e2 | .c2 (c2 d2 e2 | g3 f e2) z2 | %160
 z4 z2 (f>g) | (a^gag agaf) | .d2 (d2 e2 f2 |!<(! a3 g!<)!!>(! f2) z2!>)! | (g3 f e2) z2 | %165
!<(! (d4!<)! cBAG) | (g3 ^f/g/ ag=fe) | (^cded =cBAG) | (cdef agfe) | (^cded =cBAG) | %170
"^K" c2 z2 z2 (e>f) | .g2 .g2 .g2 .c'2 | (c'4 b2) (b>c') | .d'2 .d'2 .d'2 .f2 | (f4 e2) (e>f) | %175
!<(! (g^fgf!<)!!>(! gabc')!>)! | (c'4 b2) (b>c') |!<(! (d'^c'd'c')!<)!!>(! d'2 f2!>)! | %178
"^L" _e2 z2 z4 | z8 | z8 | z4 z2!p! (c>d) | ._e2 .e2 .e2 (d>c) | (B4 c4) | f4- (fedc) | %185
!p! (B4 c4) | f4- (fedc) | B2 z2 z!p! .B.d.e | f2 z2 z .B.d.e | .f!f!.B.d.e .f.B.d.e | %190
 (fegf!>(! ag^f=f)!>)! |!p!"_dolce""^M" (e3 f d3 e) | c2 (g3 ^f=fe) | (e3 f d3 e) | %194
 c2 (c'3 b^a=a) | (a2 c'4) g2- | g2 f4 e2- | (ed^cd cde=c) | B2 z2 z4 | z8 | (e3 f d3 e) | %201
 c2 (g4 f2) | (e3 f d3 e) |"_cresc." .c.B.c.d .e.^g.a.b | .c'.e.f.g .a.^c.d.e | f8 | (e4 f2 a>f) | %207
 (e2 g2 f2 d2) |"^N" e2 z2 z .d'.c'.b | .a!f!.d'.c'._b .a.b.a.g |!p! f8 |!pp! _e4 _a4- | a4 g4 | %213
 (_a6 _b2) | (_a6 _b2) | (_a2 _b2 a2 b2) | (_a4 ^f4 | g4 d4) | %218
!f!"^O" c/d/e/f/ g/a/b/c'/ d'/c'/b/a/ g/f/e/d/ | c2 z2 B2 B2 | %220
 c/d/e/f/ g/a/b/c'/ d'/c'/b/a/ g/f/e/d/ | c2 z2 B2 B2 | c/d/e/f/ g/a/b/c'/ d'/c'/b/a/ g/f/e/d/ | %223
 e/g/^f/g/ =f/g/^f/g/ e/g/f/g/ =f/g/^f/g/ | e/C/D/E/ F/G/A/B/ c/B/c/d/ e/d/e/f/ | %225
!p!"^P"!<(! g4-!<)!!>(! (gfed)!>)! | .c2 .c2 (cBAG) |!<(! (g^fgf!<)!!>(! g=fed)!>)! | %228
 .c2 c2- (cBAG) |!<(! (g^fg^g!<)!!>(! a=fed)!>)! |{d} c2 (c3 edB) | c2 z2!mf! EF/G/ A/B/c/d/ | %232
 (e.c).c.c c2 z2 | (g.e).e.e!pp! (_e4 | d4 _d4 | c4 B4) | (c.G).G.G!<(! (A.F).F.F!<)! | %237
!f!"^Q" F4!f!!>(! ^F4- | (F2!>)! G2) z2!p! .B2 | .c2 z2!f!!>(! ^f4- | (f2!>)! g2) z2!p! .b2 | %241
 .c'2 z2!ff!!>(! _e4- | (e2!>)! =e2) z2!p! (f>d) | c2 z2 z2 (d>e) | .c2 (d>e) .c2 (d>e) | %245
 .c2 z2 z2 (f>g) | .e2 (f>g) .e2 (f>g) | .e2 z2 z2!f! .b.d' | .c'.c'.b.d' .c'.c'.b.d' | %249
 c'2 z2 g2 z2 | e2 z2 z2!ff! (g>a) | ._b2 .b2 .b2 .g2 | (e4 f2) z2 | (B4 c2) z2 | d2 z2 B2 z2 | %255
 c2 z2 z2!p! (e>f) | .g2 .g2 .g2 .e2 | c2 z2 z2 (e>f) | .g2 .g2 .g2 .e2 | c2 z2 c'2 z2 | %260
 c'2 z2 z2 :| %261
V:2
 z3/2!f! G/ |!>(! (G8!>)! |!p! .E2) z2 z4 | z8 | z8 | z2!p! (G2 B2 c2 | d2 B2 c2) z2 | z8 | z8 | %9
 z2!p! (A2 ^c2 d2 | e2 ^c2 d2) z2 | (d2 B2 c2) z2 | (A2 F4 D2) | C2 z2 z4 | (A2 F4 D2) | C2 z2 z4 | %16
 (A2 F4 D2) |!p! EGEG EGEG | EGEG EGEG | FGFG FGFG | FGFG FGDG | EGEG EGEG | EGEG EGEG | %23
 FGFG FGFG | FGFG FGDG | E2 (e>d) .c2 (c>B) | .A2 (A>G) .F2 (F>E) | .D2 .E2 .D2 .c2 | %28
!f! B2 z2 z2 .e2 | .d2 .e2 .d2 .c2 | B2 z2 B2 z2 | B2 z2 z4 | z4 z2!p! (_e>f) | %33
 (.g2 .g2 .g2 ._e2) |!<(! ^c8!<)! | !courtesy!=c4- (cBAG | ^F2) F2- (FGAB) |!p! c4- (cBAG | %38
 ^F2) F2- (FGAB) | .c!p!.c.A.G ^F2 z2 | z .c.A.G ^F2 z2 | z!f! .c.A.G .^F.c.A.G | ^F2 z2 z4 | %43
!p!"_dolce" D4 D4 | D2 z2 z2 D2 | D4 D4 | D2 z2 z2 G2 | G2 z2 G2 z2 | ^F2 z2 G2 z2 | E2 z2 z2 e2 | %50
 (B2 A2) z4 | d d2 d2 d2 d- | dd g3 e ^f2 | g d2 d2 d2 d- | dd g3 e ^f2 | %55
"_cresc." .d._e.d.c .B.c.B.A | .G._A.G.F .E.F.E.D | (C2 D2 E2 ^F2 | G2 ^G2 A2 cA) | %59
 (G2 B2 A2 ^F2) | G2 z2 z!<(! .a.g.^f!<)! | .e!f!.f.e.d .c.d.c.B |!p! A8 |!pp! G8 | F8 | (G6 _A2) | %66
 (G6 _A2) | (G2 _A2 G2 A2) | G4 G4- | (G4 ^F4) | G2 z2 z4 | z4!f! c2 c2 | B2 z2 c2 c2 | %73
 B2 z2 c2 c2 | B2 z2 c2 c2 | B2 c2 B2 c2 | B2 z2 z4 |!p! (DGBG DAcA) | (DGBG D^FAF) | (DGBG DAcA) | %80
 (DGBG D^FAF) | .d2 f2- (fedc) | (BdBd Bdcd) | B2 z2 z4 | (d.B).B.B B2 z2 | (b.g).g.g!p! (g4 | %86
 ^f4 =f4 | e4) (_e.c).c.c | (d.B).B.B!<(! (c.G).G.G!<)! |!f! G4!f!!>(! G4- | %90
 (G2!>)! B2) z2!p! .c2 | .B2 z2!f!!>(! G4- | (G2!>)! B2) z2!p! .^f2 | .g2 z2!ff!!>(! g4- | %94
 g4!>)! z2!p! .c2 | .B2 z2 z2 (c2 | .B2) (c2 .B2) (c2 | .B2) z2 z2 (A2 | .G2) (A2 .G2) (A2 | %99
 .G2) z2 z2!f! .A.c | .B.B.A.c .B.B.A.c | B2 z2 B2 z2 | G2 z2 z2 ::!p! (B>c) .d2 .d2 .d2 .B2 | %104
 (^G8 | .A2)!f! .f2 .e2 .d2 | .c2 z2 z2!p! (A>_B) | .c2 .c2 .c2 .A2 | (^F8 | .G2)!f! ._e2 .d2 .c2 | %110
 ._B2 z2 z2!p! (e>f) | .g2 .g2 .g2 .e2 | ^c6 (d>e) | .f2 .f2 .f2 .d2 | B6 (c>d) | %115
 ._e2 .e2 .e2 .c2 | A6 (_B>c) | .d2 ._d2 .d2 ._B2 | G2 z2 z4 | z8 | z8 |!p! c c2 c2 c2 c- | %122
 cc f3 d e2 | f c2 c2 c2 c- | cc f3 d e2 | c2 (c4 ^c2 | d) A2 A2 A2 A- | AA (d4 ^c2 | %128
 d) A2 A2 A2 A- | AA (d4 ^c2 | d) A2 A2 A2 A- | A2 A4 A2- | A2 (G4 ^F2) | G2 z2 z4 | (Bcdc edcB) | %135
 c2 z2 z4 | (cded fedc) | B2 z2 z4 | (Bcdc edcB) | c2 z2 z4 | (cded fedc) | B2 z2 z4 | z8 | %143
 z4 z2!p! (B>c) | .d2 .d2 .d2 .B2 | .G2 z2 z2 (d>e) | .f2 .f2 .f2 .d2 | .B2 z2 z2 (d>e) | %148
 .f2 .d2 .B2 (d>e) | .f2 .d2 .B2 (d>e) | .f2 (d>e) .f2 (d>e) | .f2 z2 z4 | z8 | %153
!p! !fermata!B6 z3/2!f! G/ | (G8 |!p! .E2) z2 z4 | z4 z2 c>d | .e2 .e2 .e2 .c2 | .E2!p! (G2 B2 c2 | %159
 d2 B2 c2) z2 | z4 z2 (d>e) | .f2 .f2 .f2 .d2 | .A2 (A2 ^c2 d2 | e2 ^c2 d2) z2 | (d2 B2 c2) z2 | %165
!<(! (A2!<)!!>(! F4 D2)!>)! | C2 z2 z4 |!<(! (A2!<)!!>(! F4 D2)!>)! | G2 z2 z4 | %169
!<(! (A2!<)!!>(! F4) F2!>)! | EGEG EGEG | EGEG EGEG | FGFG FGFG | FGFG FGdG | cGEG EGEG | %175
 EGEG EGEG | FGFG FGFG | FGBG BGdG | c2 z2 z4 | z4 z2!p! (c>d) | (._e2 .e2 .e2 .c2) | (_A4!<(! G4 | %182
 ^F4)!<)! =F4- | F2 z2 z4 | G2 G4 G2- | G2 G4 G2- | G2 G4 G2- | G2 z2 z!p! .G.B.c | %188
 d2 z2 z .G.B.c | .d!f!.G.B.c .d.G.B.c | d2 z2 z4 |!p! G4 G4 | G2 z2 z2 G2 | G4 G4 | G2 z2 z2 c2 | %195
 c2 z2 c2 z2 | B2 z2 c2 z2 | A2 z2 z2 A2 | G2 z2 z4 | G G2 G2 G2 G- | GG c3 A B2 | c G2 G2 G2 G- | %202
 GG c3 A B2 |"_cresc." .G._A.G.F .E.f.e.d | .c.^c.=c.^A .=A.^A.=A.G | (F2 G2 A2 B2 | %206
 c2 ^c2 d2 fd) | (c2 e2 d2 B2) | c2 z2 z4 | z!f! ._b.a.g .f.g.f.e |!p! d8 |!pp! c8 | _B8 | %213
 (c6 _d2) | (c6 _d2) | (c2 _d2 c2 d2) | c4 c4- | (c4 B4) | E2 z2 z4 | z4!f! f2 f2 | e2 z2 F2 F2 | %221
 E2 z2 f2 f2 | e2 z2 B2 B2 | c2 B2 c2 B2 | c2 z2 z4 | z!p! .c(cG) z .A(AF) | z (EGE) z DDD | %227
 z2 c2 z2 (FA) | z (EGE) z DDD | z!<(! c2 c-!<)!!>(! (cAGF)!>)! |{F} E2 (E3 GFD) | E2 z2 z4 | z8 | %233
 (e.c).c.c!pp! (c4 | B4 _B4 | A4) (_A.F).F.F | (G.E).E.E!<(! (F.C).C.C!<)! |!f! C4!f!!>(! C4- | %238
 (C2!>)! E2) z2!p! .F2 | .E2 z2!f!!>(! c4- | (c2!>)! e2) z2!p! .f2 | .e2 z2!ff!!>(! c4- | %242
 c4!>)! z2!p! (D>F) | E2 z2 z2 (F2 | .E2) (F2 .E2) (F2 | .E2) z2 z2 (d2 | .c2) (d2 .c2) (d2 | %247
 .c2) z2 z2!f! .d.f | .e.e.d.f .e.e.d.f | e2 z2 e2 z2 | c2 z2 z2!ff! (G>A) | ._B2 .B2 .B2 .G2 | %252
!>(! (_d4 c2)!>)! z2 | (_A4 G2) z2 | !courtesy!=A2 z2 F2 z2 | E2 z2 z2!p! (c>d) | .e2 .e2 .e2 .c2 | %257
 E2 z2 z2 (c>d) | .e2 .e2 .e2 .c2 | E2 z2 e2 z2 | e2 z2 z2 :| %261
V:3
[K:D] z3/2!f! D/ |!>(! D8-!>)! |!p! D2 z2 z2!p! (F>G) | .A2 .A2 .A2 .F2 | .D2 z2 z4 | %5
 z2 (F2 E2 D2 | C2 A,2 D2) (G>A) | .B2 .B2 .B2 .G2 | .E2 z2 z4 | z2!p! (G2 F2 E2 | ^D2 B,2 E2) z2 | %11
 (C2 A,2 D2) z2 |!<(! (G,4!<)!!>(! A,2 G,2)!>)! | F,2 z2 z4 |!<(! (G,4!<)!!>(! A,2 G,2)!>)! | %15
 F,2 z2 z4 | G,4 A,4 | D2!<(! (d2!>(! c2!<)! d2)!>)! | D2 z2 z4 | z2 (E2 ^D2 E2) | A,2 z2 z2 C2 | %21
 D2!<(! (d2!>(! c2!<)! d2)!>)! | D2 z2 z2 (D2 | E2) (E2 ^D2 E2) | A,2 z2 z2 C2 | %25
 D2 (d>c) .B2 (B>A) | .G2 (G>F) .E2 (E>D) | .C2 .D2 .C2 .B,2 |!f! A,2 z2 z2 .d2 | .c2 .d2 .c2 .B2 | %30
 A2 z2 A,2 z2 | A,2 z2 z2!p! (A>_B) | (.=c2 .c2 .c2 .A2) | =F8- | F8 | E8- | E2 E2- (EF^GA) | %37
 B2!p! E2 E2 E2 | E2 E2- (EF^GA) | .B!p!.B.^G.F E2 z2 | z .B.^G.F E2 z2 | z!f! .B.^G.F .E.B.G.F | %42
 E2 z2 z4 |"_dolce"!p! (A,4 D4 | C2) z2 z2 ^G,2 | (A,4 D4 | C2) z2 z2 C2 | D2 z2 C2 z2 | %48
 B,2 z2 A,2 z2 | D2 z2 z2 D2 | E(e^de de=de) |!p! (c3 d B3 c) | A2 (e4 d2) | (c3 d B3 c) | %54
 A2 (e4 d2) |"_cresc." .c.d.c.B .A.B.A.^G | .F.G.F.E .D.E.D.C | (B,2 C2 D2 E2) | (F2 E2 D2 B,D) | %59
 E2 z2 E2 z2 | .A,.^G.A.B .c!<(!.^E.F.G!<)! | .A!f!.C.D.E .F.^A,.B,.C |!p! (D2 E2 F2 ^G2) | %63
!pp! (A2 E2 =F2 A,2 | _B,2 G,2 =C2 =c2) | (=F=c)cc ccEc | (=F=c)cc ccEc | =F=cEc FcEc | %68
 (=F=c)cc (Fc)cc | (Ec)cc (Ed)dd | c2 z2 z4 |!f! A,/B,/C/D/ E/F/^G/A/ G/A/B/A/ G/E/F/G/ | %72
 A2 z2 E2 E2 | A,/B,/C/D/ E/F/^G/A/ G/A/B/A/ G/E/F/G/ | A2 z2 E2 E2 | A2 E2 A2 E2 | A2 z2 z4 | %77
!p! C2 z2 D2 z2 | E2 z2 z2 D2 | C2 z2 D2 z2 | E2 z2 D2 z2 | (CEA).C (DFB).D | (EAcA) EEEE | %83
!mf! A,B,/C/ D/E/F/^G/ (A.E).E.E | E2 z2 (c.A).A.A | A2 z2!p! (=f.^d).d.d | (e.E).E.E (e.c).c.c | %87
 (d.D).D.D (d.B).B.B | (c.A).A.A!<(! (D.F).F.F!<)! |!f! F4!f!!>(! =F4- | (F2!>)! E2) z2!p! .E2 | %91
 .A,2 z2!f!!>(! =F4- | (F2!>)! E2) z2!p! .E2 | .A,2 z2!ff!!>(! ^D4- | (D2!>)! E2) z2!p! .E2 | %95
 (A,E)EE EE^G,E | A,E^G,E A,EG,E | (A,E)EE EE^GE | AE^GE AEGE | (Ae)ee e!f!eEe | AeEe AeEe | %101
 A2 z2 A,2 z2 | A,2 z2 z2 :: z2 z8 | z2!p! (E2 D2 C2 | B,2)!f! .e2 .d2 .c2 | .B2 z2 z4 | z8 | %108
 z2!p! (D2 =C2 B,2 | A,2)!f! .d2 .=c2 .B2 | .A2 z2 z4 | z4 z2!p! (A>B) | .=c2 .c2 .c2 (B>A) | %113
 G2 z2 z2 (G>A) | ._B2 .B2 .B2 (A>G) | .=F2 .d2 .d2 .B2 | ^G6!p! (A>B) | .=c2 .c2 .c2 A2 | %118
 F2 z2 z4 | z8 |!p! (DEFG AB=cA) | (B3 =c A3 B) | G2 (d4 =c2) | (B3 =c A3 B) | G2 (d4 =c2-) | %125
 (c2 B4 A2) | (G3 A F3 G) | E2 (B4 A2) | (G3 A F3 G) | E2 (B4 A2) | (G3 A F3 G) | (E3 F D3 E | %132
 C3 D B,3 C) | .A,(B,/C/ D/E/F/^G/ AGAG) | A2 z2 z4 | .A,(B,/C/ D/E/F/^G/ AGAG) | A2 z2 z4 | %137
 A,2 z2 z4 | (EFGF AGFE) | F2 z2 z4 | (FGAG BAGF) | E2 z2 z4 | z8 | z8 | z4 z2!p! (E>F) | %145
 .G2 .G2 .G2 .E2 | .C2 z2 z2 (C>D) | .E2 .E2 .E2 .C2 | .A,2 (C>D) .E2 .C2 | .A,2 (C>D) .E2 .C2 | %150
 .A,2 (C>D) .E2 (C>D) | .E2 z2 z4 | z8 |!p! !fermata!A6 z3/2!f! D/ |!>(! D8-!>)! | %155
!p! D2 z2 z2 (F>G) | .A2 .A2 .A2 .F2 | D2 z2 z4 | z2 (F2 E2 D2 | C2 A,2 D2) (G>A) | (B^ABA BABG) | %161
 E2 z2 z4 | .G2 (G2 F2 E2 | ^D2 B,2 E2) z2 | (C2 A,2 D2) z2 |!<(! (G,4!<)!!>(! A,2 G,2)!>)! | %166
 F,2 z2 z4 |!<(! (G,4!<)!!>(! A,2 G,2)!>)! | F,2 z2 z4 | (G,4 A,4 | %170
 D2)!<(! (d2!>(! c2!<)! d2)!>)! | D2 z2 z4 | z2 (E2 ^D2 E2) | A,2 z2 z2 C2 | %174
 D2!<(! (d2!>(! c2!<)! d2)!>)! | D2 z2 z2 (D2 | E2) (E2 ^D2 E2) | A,2 z2 z2 C2 | %178
 D2 (D>E) .=F2 (F>G) | A2 A2 A2 =F2 | D8- | D4!<(! =C4 | B,4!<)! (_B,4 | A,2) G2- (GFED) | %184
 C4- (CDEF) | A,2 G2- (GFED) | C4- (CDEF) | .A,.G.E.D C2 z2 | z!p! .G.E.D C2 z2 | %189
 z!f! .G.E.D .C.E.C.B, | A,2 z2 z4 |!p! (D4 G4 | F2) z2 z2 C2 | (D4 G4 | F2) z2 z2 F2 | %195
 G2 z2 F2 z2 | E2 z2 D2 z2 | G2 z2 z2 ^G2 | (A,CEA ^GA=GA) | (F3 G E3 F) | D2 (A4 G2) | %201
 (F3 G E3 F) | D2 (A4 G2) | .F.G.F.E .D.e.d.c | .B.=c.B.A .G.A.G.F | (E2 F2 G2 A2 | B2 A2 G2 EG) | %207
 A2 z2 A,2 z2 | .D.C.D.E .F!<(!.^A.B.c!<)! | .d!f!.F.G.A .B.^D.E.F |!p! (G2 A2 B2 c2) | %211
!pp! (d2 A2 _B2 D2) | (_E2 =C2 =F2) F2 | (_B,=F)FF FFA,F | (_B,=F)FF FFA,F | _B,=FA,F B,FA,F | %216
 (_B,=F)FF (B,F)FF | (A,F)FF (A,G)GG | D2 z2 z4 |!f! D/E/F/G/ A/B/c/d/ e/d/c/B/ A/G/F/E/ | %220
 D2 z2 A,2 A,2 | D/E/F/G/ A/B/c/d/ e/d/c/B/ A/G/F/E/ | D2 z2 A,2 A,2 | D2 A,2 D2 A,2 | D2 z2 z4 | %225
!p! (FA,DF) (G,B,EG) | (A,DFD) (G,A,CA,) | (FA,DF) (G,B,EG) | (A,DFD) (G,A,CA,) | %229
!<(! (FA,DF)!<)!!>(! (G,B,EG)!>)! | A,AA,A A,AA,A |!f! DE/F/ G/A/B/c/ (d.A).A.A | A2 z2 (F.D).D.D | %233
!f! D2 z2!pp! (_B.^G).G.G | (A.A,).A,.A, (A.F).F.F | (G.G,).G,.G, (G.E).E.E | %236
 (F.D).D.D!<(! (G,.B,).B,.B,!<)! |!f! B,4!f!!>(! _B,4- | (B,2!>)! A,2) z2!p! .A,2 | %239
 .D2 z2!f!!>(! _B4- | (B2!>)! A2) z2!p! .A2 | .D2 z2!ff!!>(! ^G4- | (G2!>)! A2) z2!p! .A2 | %243
 (DA)AA AACA | DACA DACA | (DA)AA AAcA | dAcA dAcA | (dA)AA A!f!.A.A,.A | .D.A.A,.A .D.A.A,.A | %249
 D2 z2 D2 z2 | D2 z2 z2!ff! (A,>B,) | .=C2 .C2 .C2 .A,2 |!>(! (=c4 B2)!>)! z2 | (G4 F2) z2 | %254
 G,2 z2 A,2 z2 | D2!p! (D>C) D2 D2 | D2 z2 z2 (D>C) | D2 (D>C) D2 D2 | D2 z2 z2 (D>C) | %259
 D2 (D>C) D2 (D>C) | D2 z2 z2 :| %261

